!! 00053] TT[KA
!! Kassette von Frau Li Wenzhen, Peking - Zum Gesangsheft
!!!OTL: Chuse de geshou
!!!ARE: Heilongjiang
!! Ethnic Group: Elunchun
!! MM,, Seite 26, 1
!!!SCT: C1123
!!!YEM: Copyright 1995, estate of Helmut Schaffrath.
**kern
*ICvox
*Ivox
!! Mixed meters:  3/4; 4/4
*M4/4
*k[b-e-]
*B-:
{8cc
8cc
8b-
16cc
16cc
8dd
8b-
=1
[2.cc
8cc]
8dd
=2
8g
16g
16g
8b-
16cc
16b-
2g}
=3
{4b-
4b-
4cc
8cc
8g
=4
8.b-
16cc
8f
8g
8e-
8c
16c
16d
16d
16B-
=5
1c}
=6
*M3/4
{8cc
8cc
8b-
8cc
16dd
16b-
8cc
=7
*M4/4
[2.cc
8cc]
8dd
=8
8g
8g
8b-
16b-
16g
2g}
=9
{4b-
4b-
8cc
16cc
16ee-
8g
8g
=10
8b-
16b-
16b-
8cc
8cc
8dd
16dd
16b-
8g
8g
=11
*M3/4
8f
16f
16g
8e-
8c
8d
8B-
=12
*M4/4
1c}
=13
{4b-
4b-
8cc
16cc
16ee-
8g
8g
=14
8b-
16b-
16b-
8cc
8cc
8dd
16dd
16b-
8g
8g
=15
*M3/4
8f
16f
16g
8e-
8c
8d
8B-
=16
1c}
==
!!!AGN: NN
!! Die Stuecke sind meist uebersteuert, also verzerrt.
!!    Vereinzelt Verzierungen.
!!!ONB: ESAC (Essen Associative Code) Database: CHINA
!!!AMT: irregular
!!!AIN: vox
!!!EED: Helmut Schaffrath
!!!EEV: 1.0
*-
